X:173
M:4/4
L:1/4
K:Ab
E | E C  E A3/4 B/4 | c2 A A | G G3/4 G/4 A B | A3 E | F F  A G3/4 F/4 | E2 A B | c c3/4 c/4 B B | A3 z | c2  c3/4 B/4 A | e2  e3/4 d/4 c | B B B3/2 c/ | d c B2 | !sintro!c2  c3/4 B/4 A | e2  e3/4 d/4 c | B c/d/ c3/2 B/ | A G !fermata!A !eintro!|]
